X: 2
T: Ach Gott, wie weh tut Scheiden
C: Nach Forster: Frische teutsche Liedlein, 1549. Mel. 1817.
M: 6/8
K: G
L: 1/8
G | "D7"A2GF2E | "C"E3"G"D2D | "G"G2G"D7"AGA | "G"B3z2G | "D7"A2GF2E/2E/2 | "C"E3"G"D2D | "G"G2G"D7"AGA | "G"B3z2B | "D"d2d"G"d2d | "D7"d2AA2A | "D7"c2cedc | "D7"c3"G"B2B | "C"cBA"C"G2"D7"F | "G"G3z2 |]
w: 1.~Ach Gott, wie weh tut Schei-den, hat mir mein Herz* ver-wundt. So trab ich ü-ber die Hei-den und traur zu al--ler Stund. Der Stun-den der seind all-so-viel, mein Herz trägt heim--lichs Lie-den, wie-wohl ich oft fröh-lich bin.
w: 2.~Tät mir ein Gärt-lein bau-en von Veil und grü--nem Klee, ist mir zu früh er--fro-ren, tut mei-nem Her--zen weh. Ist mir er-frorn bei Son-nen-schein ein Kraut Je-län-ger-je-lie-ber, ein Blüm-lein Ver-giss-nit-mein.
w: 3.~Das Blüm-lein, das ich mei-ne, das ist von ed--ler Art, ist al-ler Tu-gend* rei-ne, ihr Münd-lein, das* ist zart. Ihr äugl-lein, die seind hübsch und fein, wann ich an sie* ge-den-ke, wie gern ich bei ihr wollt sein.
w: 4.~Mich dünkt in all mein Sin-ne, und wenn ich bei* ihr bin, sie sei ein Kai-se--rin-ne, kein lie-ber ich* nie gweinn. Hat mir mein jun-ges Herz er-freut, wann ich an sie* ge-den-ke, ver-schwun-den ist all mein Leid.
w: 5.~Sollt mich meins Buhln er-we-gen, als oft ein and--rer tut, sollt führn ein fröh-lichs* Le-ben, dar-zu ein leich--ten Mut? Das kann und mag noch nit ge-sein. Ge-segn dich Gott* im Her-zen, es muss* ge-schie-den sein.
